X: 30985
T: P&O, The
R: polka
M: 2/4
K: Eminor
|:B,E EF|G2 FE|AD DE|F2 ED|
B,E EF|G2 FA|A/B/c Ad|1 e2 e2:|2 e2 e3/2||
|:f/|ge fd|ed BA|FA de|f2 ef|
ge fd|ed BA|FA d[Ff]|1 e2- e3/2:|2 [E2e2]- [E2e2]||

